svg/u1f4e2.svg

<svg viewBox="0 0 128 128" xmlns="http://www.w3.org/2000/svg">
  <g>
    <path d="M41.01,114.68L30.84,83.46l15.02,0.89l0.74,8.78c0.92,1.73,3.09,2.52,4.01,4.25 c0.47,0.89,0.55,1.94,0.42,2.94c-0.27,2.07-1.36,4.31-0.3,6.12c1.25,2.13,4.37,2.74,4.27,5.67 C54.9,114.79,42.31,118.43,41.01,114.68z" fill="#C62828"/>
    <path d="M39.49,121.41c0,0-0.95,0.33-0.95,0.33c-3.75,1.3-7.84-0.68-9.14-4.43L17.6,83.28h16.26 c0.58,1.66,0.78,2.27,1.37,3.93c0.54,1.51,1.28,2.26,0.8,3.86c-0.48,1.58-0.88,3.38-0.06,4.92c0.92,1.73,3.09,2.52,4.01,4.25 c0.47,0.89,0.55,1.94,0.42,2.94c-0.27,2.07-1.36,4.31-0.3,6.12c1.25,2.13,4.37,2.74,4.27,5.67 C44.28,117.65,42.01,120.54,39.49,121.41z" fill="#F44336"/>
    <path d="M39.78,106.18c-0.38,1.56,0.55,1.77,1.49,1.79c2.29,0.06,5.31-0.86,6.8-1.53 c0.57-0.25,1.1-0.58,1.58-0.95c0.36-0.28,0.6-0.69,0.63-1.14c0.07-1.31,0.57-2.7,0.74-4.03c0.07-0.55,0.07-1.12-0.02-1.66 c-0.07-0.43-0.57-0.65-0.95-0.44c-0.96,0.53-2.67,1.41-3.81,1.64c-2.26,0.46-3.65,0.42-4.63,0.44c-0.73,0.01-1.31,0.66-1.21,1.38 c0.07,0.5,0.06,1.01,0,1.5C40.27,104.16,40.02,105.19,39.78,106.18z" fill="#A12524"/>
    <path d="M44.37,114.96c-1.34,4.26-4.68,5.74-8.17,5.97c-3.38,0.23-5.72-1.66-5.72-1.66 c4.84,7.28,17.26,2.75,19.78,1.37c3.85-2.11,4.49-4.25,4.74-8.28c0.02-0.25-0.4-1.1-1.19-0.46c-1.2,0.96-2.56,1.31-4.08,1.62 c-1.87,0.38-2.87,0.27-3.63,0.32C45.12,113.9,44.63,114.12,44.37,114.96z" fill="#A12524"/>
    <path d="M17.6,83.28l3.13,9.08c0,0,1.91-4.25,9.51-3.47c5.15,0.53,6.69,2.33,6.69,2.33l0.33-7.68L17.6,83.28 z" fill="#C62828"/>
    <path d="M103.16,110.64c0,0-33.81-25.03-61.92-25.78c-12.09-0.32-20.86-0.35-22.97-0.35 C11.65,84.52,4,75.11,4,58.55s8.61-27.73,15.23-27.73c0.98,0,11.45,0.62,24.11,0.26c29.78-0.84,59.82-24.62,59.82-24.62V110.64z" fill="#E0E0E0"/>
    <path d="M80.14,73.46c-1.13,2.02-1.15,6.62-0.85,10.88c0.22,3.05-2.83,5.31-5.68,4.19 c-19.44-7.58-35.4-6.9-35.4-6.9l0.77,3.17c0.74,0.02,1.49,0.04,2.25,0.06c16.98,0.45,36.04,9.76,48.47,17.07 c0,0-3.84-5.52-5.8-13.06C81.87,81.01,80.14,73.46,80.14,73.46z" fill="#BDBDBD"/>
    <path d="M34.27,58.55c0-9.45,3.09-20.05,6.96-27.42c-11.69,0.24-21.07-0.31-22-0.31 C12.61,30.82,4,41.99,4,58.55s7.65,25.96,14.28,25.96c2.11,0,10.88,0.03,22.97,0.35c0.07,0,0.15,0.01,0.22,0.01 C36.99,76.83,34.27,67.97,34.27,58.55z" fill="#F44336"/>
    <ellipse cx="103.16" cy="58.55" rx="20.84" ry="52.09" fill="#2F7889"/>
    <linearGradient id="SVGID_1_" gradientUnits="userSpaceOnUse" x1="103.1641" x2="103.1641" y1="103.8268" y2="45.2216">
      <stop offset="0" stop-color="#353738"/>
      <stop offset="1" stop-color="#353738" stop-opacity="0"/>
    </linearGradient>
    <path d="M83.24,43.31c-0.59,4.82-0.91,9.94-0.91,15.25c0,28.77,9.33,52.09,20.84,52.09 c11.51,0,20.84-23.32,20.84-52.09c0-5.31-0.32-10.42-0.91-15.25H83.24z" fill="url(#SVGID_1_)"/>
    <path d="M103.16,113.64c-13.59,0-23.84-23.68-23.84-55.09c0-31.41,10.25-55.09,23.84-55.09 S124,27.15,124,58.55C124,89.96,116.75,113.64,103.16,113.64z M103.16,9.46c-8.44,0-17.84,20.16-17.84,49.09 s9.4,49.09,17.84,49.09S121,87.48,121,58.55S111.6,9.46,103.16,9.46z" fill="#E0E0E0"/>
    <path d="M89.56,23.24c-0.9,2.44-4.15,7.85-5.65,25.65c-0.05,0.6-0.38,3.24-1.85,3.24 c-0.98,0-1.27-1.48-1.27-3.52c0-7.95,1.32-16.72,4.39-25.38C86.92,18.34,90.81,19.88,89.56,23.24z" fill="#FFFFFF"/>
    <radialGradient id="SVGID_2_" cx="101.2066" cy="60.2475" gradientTransform="matrix(1 0 0 1.7015 0 -42.2637)" gradientUnits="userSpaceOnUse" r="20.9176">
      <stop offset="0.4156" stop-color="#82AEC0"/>
      <stop offset="1" stop-color="#7FA9BB" stop-opacity="0"/>
    </radialGradient>
    <path d="M85.9,46.49l18.9,2.2v19.9l-18.76,3.38C84.8,56.24,85.9,46.49,85.9,46.49z" fill="url(#SVGID_2_)"/>
    <ellipse cx="104.8" cy="58.65" rx="4.72" ry="9.95" fill="#E0E0E0"/>
    <path d="M38.23,87.4l-0.75,1.3l3.21,6.27c0.39,0.76,1.23,1.18,2.07,1.02l5.42-1.09c0,0,1.51-2.15,1.8-2.64 c0.29-0.49,0.18-0.78,0.18-0.78l-6.16,1.18C43.99,92.66,38.43,87.46,38.23,87.4z" fill="#353738"/>
    <path d="M42.33,91.96l-4.16-4.53l7.49-0.03l4.24,3.67c0.51,0.54,0.18,1.21-0.55,1.33l-4.21,0.66 C44.08,93.22,43.01,92.81,42.33,91.96z" fill="#616161"/>
    <path d="M57.51,37.53c6.34-0.84,12.6-2.77,17.96-6.26c-3.11,8.35-4.59,18.41-3.44,27.26 c-2.96-1.46-5.95-2.92-9.11-3.86c-2.64-0.78-5.37-1.19-8.1-1.51c-6.87-0.83-13.23-0.96-20.14-0.83c0.2,0,0.75-4.67,1.59-8.15 c0.84-3.48,1.7-5.5,1.7-5.5S51.5,38.33,57.51,37.53z" fill="#FFFFFF"/>
    <path d="M35.28,38.25c-9.7,0.29-20.53,0.42-20.53,0.42s-4.89,4.26-5.76,13.65c0,0,11.55,0,22.04,0.19 C31.77,45.75,33.95,40.76,35.28,38.25z" fill="#FF7555"/>
  </g>
</svg>

<svg viewBox="0 0 128 128" xmlns="http://www.w3.org/2000/svg">
  <defs>
    <linearGradient id="SVGID_1_" gradientUnits="userSpaceOnUse" x1="103.1641" x2="103.1641" y1="103.8268" y2="45.2216">
      <stop offset="0" stop-color="#353738"/>
      <stop offset="1" stop-color="#353738" stop-opacity="0"/>
    </linearGradient>
    <radialGradient id="SVGID_2_" cx="101.2066" cy="35.408417" gradientTransform="matrix(1 0 0 1.7015 0 0)" gradientUnits="userSpaceOnUse" r="20.9176">
      <stop offset="0.4156" stop-color="#82AEC0"/>
      <stop offset="1" stop-color="#7FA9BB" stop-opacity="0"/>
    </radialGradient>
  </defs>
  <path d="M41.01,114.68 L30.84,83.46 L45.86,84.35 L46.6,93.13 C47.52,94.86 49.69,95.65 50.61,97.38 C51.08,98.27 51.16,99.32 51.03,100.32 C50.76,102.39 49.67,104.63 50.73,106.44 C51.98,108.57 55.1,109.18 55,112.11 C54.9,114.79 42.31,118.43 41.01,114.68 Z" fill="#C62828"/>
  <path d="M39.49,121.41 C39.49,121.41 38.54,121.74 38.54,121.74 C34.79,123.04 30.7,121.06 29.4,117.31 L17.6,83.28 L33.86,83.28 C34.44,84.94 34.64,85.55 35.23,87.21 C35.77,88.72 36.51,89.47 36.03,91.07 C35.55,92.65 35.15,94.45 35.97,95.99 C36.89,97.72 39.06,98.51 39.98,100.24 C40.45,101.13 40.53,102.18 40.4,103.18 C40.13,105.25 39.04,107.49 40.1,109.3 C41.35,111.43 44.47,112.04 44.37,114.97 C44.28,117.65 42.01,120.54 39.49,121.41 Z" fill="#F44336"/>
  <path d="M39.78,106.18 C39.4,107.74 40.33,107.95 41.27,107.97 C43.56,108.03 46.58,107.11 48.07,106.44 C48.64,106.19 49.17,105.86 49.65,105.49 C50.01,105.21 50.25,104.8 50.28,104.35 C50.35,103.04 50.85,101.65 51.02,100.32 C51.09,99.77 51.09,99.2 51,98.66 C50.93,98.23 50.43,98.01 50.05,98.22 C49.09,98.75 47.38,99.63 46.24,99.86 C43.98,100.32 42.59,100.28 41.61,100.3 C40.88,100.31 40.3,100.96 40.4,101.68 C40.47,102.18 40.46,102.69 40.4,103.18 C40.27,104.16 40.02,105.19 39.78,106.18 Z" fill="#A12524"/>
  <path d="M44.37,114.96 C43.03,119.22 39.69,120.7 36.2,120.93 C32.82,121.16 30.48,119.27 30.48,119.27 C35.32,126.55 47.74,122.02 50.26,120.64 C54.11,118.53 54.75,116.39 55,112.36 C55.02,112.11 54.6,111.26 53.81,111.9 C52.61,112.86 51.25,113.21 49.73,113.52 C47.86,113.9 46.86,113.79 46.1,113.84 C45.12,113.9 44.63,114.12 44.37,114.96 Z" fill="#A12524"/>
  <path d="M17.6,83.28 L20.73,92.36 C20.73,92.36 22.64,88.11 30.24,88.89 C35.39,89.42 36.93,91.22 36.93,91.22 L37.26,83.54 L17.6,83.28 Z" fill="#C62828"/>
  <path d="M103.16,110.64 C103.16,110.64 69.35,85.61 41.24,84.86 C29.15,84.54 20.38,84.51 18.27,84.51 C11.65,84.52 4,75.11 4,58.55 C4,41.99 12.61,30.82 19.23,30.82 C20.21,30.82 30.68,31.44 43.34,31.08 C73.12,30.24 103.16,6.46 103.16,6.46 L103.16,110.64 Z" fill="#E0E0E0"/>
  <path d="M80.14,73.46 C79.01,75.48 78.99,80.08 79.29,84.34 C79.51,87.39 76.46,89.65 73.61,88.53 C54.17,80.95 38.21,81.63 38.21,81.63 L38.98,84.8 C39.72,84.82 40.47,84.84 41.23,84.86 C58.21,85.31 77.27,94.62 89.7,101.93 C89.7,101.93 85.86,96.41 83.9,88.87 C81.87,81.01 80.14,73.46 80.14,73.46 Z" fill="#BDBDBD"/>
  <path d="M34.27,58.55 C34.27,49.1 37.36,38.5 41.23,31.13 C29.54,31.37 20.16,30.82 19.23,30.82 C12.61,30.82 4,41.99 4,58.55 C4,75.11 11.65,84.51 18.28,84.51 C20.39,84.51 29.16,84.54 41.25,84.86 C41.32,84.86 41.4,84.87 41.47,84.87 C36.99,76.83 34.27,67.97 34.27,58.55 Z" fill="#F44336"/>
  <path d="M124,58.55 A20.84 52.09 0 1 1 82.32,58.55 A20.84 52.09 0 1 1 124,58.55 Z" fill="#2F7889"/>
  <path d="M83.24,43.31 C82.65,48.13 82.33,53.25 82.33,58.56 C82.33,87.33 91.66,110.65 103.17,110.65 C114.68,110.65 124.01,87.33 124.01,58.56 C124.01,53.25 123.69,48.14 123.1,43.31 L83.24,43.31 Z" fill="url(#SVGID_1_)"/>
  <path d="M103.16,113.64 C89.57,113.64 79.32,89.96 79.32,58.55 C79.32,27.14 89.57,3.46 103.16,3.46 C116.75,3.46 124,27.15 124,58.55 C124,89.96 116.75,113.64 103.16,113.64 Z M103.16,9.46 C94.72,9.46 85.32,29.62 85.32,58.55 C85.32,87.48 94.72,107.64 103.16,107.64 C111.6,107.64 121,87.48 121,58.55 C121,29.62 111.6,9.46 103.16,9.46 Z" fill="#E0E0E0"/>
  <path d="M89.56,23.24 C88.66,25.68 85.41,31.09 83.91,48.89 C83.86,49.49 83.53,52.13 82.06,52.13 C81.08,52.13 80.79,50.65 80.79,48.61 C80.79,40.66 82.11,31.89 85.18,23.23 C86.92,18.34 90.81,19.88 89.56,23.24 Z" fill="#FFFFFF"/>
  <path d="M85.9,46.49 L104.8,48.69 L104.8,68.59 L86.04,71.97 C84.8,56.24 85.9,46.49 85.9,46.49 Z" fill="url(#SVGID_2_)"/>
  <path d="M109.52,58.65 A4.72 9.95 0 1 1 100.08,58.65 A4.72 9.95 0 1 1 109.52,58.65 Z" fill="#E0E0E0"/>
  <path d="M38.23,87.4 L37.48,88.7 L40.69,94.97 C41.08,95.73 41.92,96.15 42.76,95.99 L48.18,94.9 C48.18,94.9 49.69,92.75 49.98,92.26 C50.27,91.77 50.16,91.48 50.16,91.48 L44,92.66 C43.99,92.66 38.43,87.46 38.23,87.4 Z" fill="#353738"/>
  <path d="M42.33,91.96 L38.17,87.43 L45.66,87.4 L49.9,91.07 C50.41,91.61 50.08,92.28 49.35,92.4 L45.14,93.06 C44.08,93.22 43.01,92.81 42.33,91.96 Z" fill="#616161"/>
  <path d="M57.51,37.53 C63.85,36.69 70.11,34.76 75.47,31.27 C72.36,39.62 70.88,49.68 72.03,58.53 C69.07,57.07 66.08,55.61 62.92,54.67 C60.28,53.89 57.55,53.48 54.82,53.16 C47.95,52.33 41.59,52.2 34.68,52.33 C34.88,52.33 35.43,47.66 36.27,44.18 C37.11,40.7 37.97,38.68 37.97,38.68 C37.97,38.68 51.5,38.33 57.51,37.53 Z" fill="#FFFFFF"/>
  <path d="M35.28,38.25 C25.58,38.54 14.75,38.67 14.75,38.67 C14.75,38.67 9.86,42.93 8.99,52.32 C8.99,52.32 20.54,52.32 31.03,52.51 C31.77,45.75 33.95,40.76 35.28,38.25 Z" fill="#FF7555"/>
</svg>
